X:470
T: Schatz, bist du bs (179), S. 392
N: T0358
O: Luxemburg
S: Singendes Volk, Esch-Alzette, 1937 posth.]
N: Burglinster, hhh Eugen Lemmer, 1915
R: Tage-, Wchter-, Fenstergang-, Stndchenlieder, Liebeslied]
M: 2/4
L: 1/16
K: D
 | D4D3F | F4D2F2 | A4A3A | A4
d3A | A4A4 | A4D4 | F4F3F | F4
F3F | E3FE2F2 | G4A3G | F3EF2G2 | A4
d3A | A4A4 | A4D4 | F4E3E | D8

